X:1
T:Morelia, 12.9.12.9 D
T:Morelia, 12.9.12.9 D
T:John B. Vaughan, 1906
T:Public Domain Courtesy of the Cyber Hymnal™
C:John B. Vaughan, 1906
Z:Public Domain
Z:Courtesy of the Cyber Hymnal™
%%score ( 1 2 ) ( 3 4 )
L:1/8
Q:1/4=100
M:4/4
K:G
V:1 treble 
V:2 treble 
V:3 bass 
V:4 bass 
V:1
 D[DG] | [GB]2 [GB]>[G^A] [GB]2 [DG][DG] | [EA]2 [EG]>[CE] [B,D]2 [DG][GB] | %3
 [Gd]2 [Gd]>[G^c] [Gd]2 [Ge]>[GB] | [Fd]6 [Fd][Fd] | [GB]2 [GB]>[G^A] [GB]2 [DG][DG] | %6
 [EA]2 [EG]>[CE] [B,D]2 [DG][GB] | [Gd]2 [Gd]>[DB] [EG]2 [FA]>[DFA] | [DG]6 [DG][GB] | %9
 [Gd]2 [Gd]>[G^c] [Gd]2 [GB][Gd] | [Ge]2 [GB]>[F^A] [GB]2 [DG][DG] | %11
 [Gd]2 [Gd]>[GB] [FA]2 [G^c]>[Gc] | [Fd]6 [Fd][Fd] | [GB]2 [GB]>[G^A] [GB]2 [DG][DG] | %14
 [EA]2 [EG]>[CE] [B,D]2 [DG][GB] | [Gd]2 [Gd]>[DB] [EG]2 [FA]>[DFA] | [DG]6 |] %17
V:2
 D x | x8 | x8 | x8 | x8 | x8 | x8 | x8 | x8 | x8 | x8 | x8 | x8 | x8 | x8 | x8 | x6 |] %17
V:3
 [G,B,][G,B,] | [G,D]2 [G,D]>[G,^C] [G,D]2 [B,,G,][B,,G,] | %2
 [C,C]2 [C,C]>[C,G,] [G,,G,]2 [G,B,][G,D] | [G,B,]2 [G,B,]>[G,^A,] [G,B,]2 [E,B,]>[D,F,] | %4
 [D,A,]6 [A,C][A,C] | [G,D]2 [G,D]>[G,^C] [G,D]2 [B,,G,][B,,G,] | %6
 [C,C]2 [C,C]>[C,G,] [G,,G,]2 [G,B,][G,D] | [G,B,]2 [G,B,]>G, [E,B,]2 [D,C]>[D,C] | %8
 [G,,G,B,]6 [G,B,][G,D] | [G,B,]2 [G,B,]>[G,^A,] [G,B,]2 [G,D][G,B,] | %10
 [E,B,]2 [E,E]>[E,E] [E,E]2 [G,B,][G,B,] | [G,B,]2 [G,B,]>[G,D] [D,D]2 [A,,E]>[A,,E] | %12
 ([D,D]2 [D,A,]>[E,A,]) [F,C]2 [A,C][A,C] | [G,D]2 [G,D]>[G,^C] [G,D]2 [B,,G,][B,,G,] | %14
 [C,C]2 [C,C]>[C,G,] [G,,G,]2 [G,B,][G,D] | [G,B,]2 [G,B,]>G, [E,B,]2 [D,C]>[D,C] | [G,,G,B,]6 |] %17
V:4
 x2 | x8 | x8 | x8 | x8 | x8 | x8 | x7/2 G,/ x4 | x8 | x8 | x8 | x8 | x8 | x8 | x8 | x7/2 G,/ x4 | %16
 x6 |] %17

